X: 1
T: McHugh's Other Foot
M: 4/4
L: 1/8
R: reel
K: Gmaj
|:GFAF GdBG|c2 AF DcAF|cAFc AFc^c|dBGd BGdB|
d^ce^c dgdB|c2 AF DcAF|cAFc ADFA|GFAF G4:|
|:DFAc BGBd|BGBd cAFA|AFc^c dBGd|BGdG DFAc|
BGBd BGBd|cAFc AFc^c|d^ce^c dgdB|cAFA G4:|
|:gfed edcB|cBAG ADFA|DFAD FADF|GBdG BdGB|
gfed edcB|cBAG ADFA|DFAD FADF|GFAF G4:|
